svg/arrow/move_line.svg

<?xml version="1.0" encoding="UTF-8"?>
<svg width="24px" height="24px" viewBox="0 0 24 24" version="1.1" xmlns="http://www.w3.org/2000/svg" xmlns:xlink="http://www.w3.org/1999/xlink">
    <title>move_line</title>
    <g id="页面-1" stroke="none" stroke-width="1" fill="none" fill-rule="evenodd">
        <g id="Arrow" transform="translate(-720.000000, 0.000000)" fill-rule="nonzero">
            <g id="move_line" transform="translate(720.000000, 0.000000)">
                 <path d="M24,0 L24,24 L0,24 L0,0 L24,0 Z M12.5934901,23.257841 L12.5819402,23.2595131 L12.5108777,23.2950439 L12.4918791,23.2987469 L12.4918791,23.2987469 L12.4767152,23.2950439 L12.4056548,23.2595131 C12.3958229,23.2563662 12.3870493,23.2590235 12.3821421,23.2649074 L12.3780323,23.275831 L12.360941,23.7031097 L12.3658947,23.7234994 L12.3769048,23.7357139 L12.4804777,23.8096931 L12.4953491,23.8136134 L12.4953491,23.8136134 L12.5071152,23.8096931 L12.6106902,23.7357139 L12.6232938,23.7196733 L12.6232938,23.7196733 L12.6266527,23.7031097 L12.609561,23.275831 C12.6075724,23.2657013 12.6010112,23.2592993 12.5934901,23.257841 L12.5934901,23.257841 Z M12.8583906,23.1452862 L12.8445485,23.1473072 L12.6598443,23.2396597 L12.6498822,23.2499052 L12.6498822,23.2499052 L12.6471943,23.2611114 L12.6650943,23.6906389 L12.6699349,23.7034178 L12.6699349,23.7034178 L12.678386,23.7104931 L12.8793402,23.8032389 C12.8914285,23.8068999 12.9022333,23.8029875 12.9078286,23.7952264 L12.9118235,23.7811639 L12.8776777,23.1665331 C12.8752882,23.1545897 12.8674102,23.1470016 12.8583906,23.1452862 L12.8583906,23.1452862 Z M12.1430473,23.1473072 C12.1332178,23.1423925 12.1221763,23.1452606 12.1156365,23.1525954 L12.1099173,23.1665331 L12.0757714,23.7811639 C12.0751323,23.7926639 12.0828099,23.8018602 12.0926481,23.8045676 L12.108256,23.8032389 L12.3092106,23.7104931 L12.3186497,23.7024347 L12.3186497,23.7024347 L12.3225043,23.6906389 L12.340401,23.2611114 L12.337245,23.2485176 L12.337245,23.2485176 L12.3277531,23.2396597 L12.1430473,23.1473072 Z" id="MingCute" fill-rule="nonzero"></path>
                <path d="M8.46436,6.707 C8.07384,6.31648 8.07384,5.68331 8.46436,5.29279 L11.2221,2.53507 C11.6517,2.1055 12.3481,2.1055 12.7777,2.53507 L15.5354,5.29279 C15.926,5.68331 15.926,6.31648 15.5354,6.707 C15.1449,7.09753 14.5117,7.09753 14.1212,6.707 L12.9999,5.58569 L12.9999,10.9999 L18.4141,10.9999 L17.2928,9.87863 C16.9023,9.48811 16.9023,8.85494 17.2928,8.46442 C17.6833,8.0739 18.3165,8.0739 18.707,8.46442 L21.4647,11.2221 C21.8943,11.6517 21.8943,12.3482 21.4647,12.7778 L18.707,15.5355 C18.3165,15.926 17.6833,15.926 17.2928,15.5355 C16.9023,15.145 16.9023,14.5118 17.2928,14.1213 L18.4142,12.9999 L12.9999,12.9999 L12.9999,18.4141 L14.1212,17.2928 C14.5117,16.9023 15.1449,16.9023 15.5354,17.2928 C15.926,17.6833 15.926,18.3165 15.5354,18.707 L12.7777,21.4647 C12.3481,21.8943 11.6517,21.8943 11.2221,21.4647 L8.46436,18.707 C8.07384,18.3165 8.07384,17.6833 8.46436,17.2928 C8.85488,16.9023 9.48805,16.9023 9.87857,17.2928 L10.9999,18.4141 L10.9999,12.9999 L5.58562,12.9999 L6.707,14.1213 C7.09753,14.5118 7.09753,15.145 6.707,15.5355 C6.31648,15.926 5.68331,15.926 5.29279,15.5355 L2.53507,12.7778 C2.1055,12.3482 2.1055,11.6517 2.53507,11.2221 L5.29279,8.46442 C5.68331,8.0739 6.31648,8.0739 6.707,8.46442 C7.09753,8.85495 7.09753,9.48811 6.707,9.87863 L5.58574,10.9999 L10.9999,10.9999 L10.9999,5.58568 L9.87857,6.707 C9.48805,7.09753 8.85488,7.09753 8.46436,6.707 Z" id="路径" fill="#09244B"></path>
            </g>
        </g>
    </g>
</svg>

<svg xmlns="http://www.w3.org/2000/svg" width="24" height="24"><g fill="none" fill-rule="nonzero"><path d="M24 0v24H0V0h24ZM12.593 23.258l-.011.002-.071.035-.02.004-.014-.004-.071-.035c-.01-.004-.019-.001-.024.005l-.004.01-.017.428.005.02.01.013.104.074.015.004.012-.004.104-.074.012-.016.004-.017-.017-.427c-.002-.01-.009-.017-.017-.018Zm.265-.113-.013.002-.185.093-.01.01-.003.011.018.43.005.012.008.007.201.093c.012.004.023 0 .029-.008l.004-.014-.034-.614c-.003-.012-.01-.02-.02-.022Zm-.715.002a.023.023 0 0 0-.027.006l-.006.014-.034.614c0 .012.007.02.017.024l.015-.002.201-.093.01-.008.004-.011.017-.43-.003-.012-.01-.01-.184-.092Z"/><path fill="#09244B" d="M8.464 6.707a1 1 0 0 1 0-1.414l2.758-2.758a1.1 1.1 0 0 1 1.556 0l2.757 2.758a1 1 0 1 1-1.414 1.414L13 5.586V11h5.414l-1.121-1.121a1 1 0 0 1 1.414-1.415l2.758 2.758a1.1 1.1 0 0 1 0 1.556l-2.758 2.758a1 1 0 0 1-1.414-1.415L18.414 13H13v5.414l1.121-1.121a1 1 0 0 1 1.414 1.414l-2.757 2.758a1.1 1.1 0 0 1-1.556 0l-2.758-2.758a1 1 0 1 1 1.415-1.414l1.12 1.121V13H5.587l1.121 1.121a1 1 0 1 1-1.414 1.415l-2.758-2.758a1.1 1.1 0 0 1 0-1.556l2.758-2.758A1 1 0 0 1 6.707 9.88l-1.121 1.12H11V5.587L9.879 6.707a1 1 0 0 1-1.415 0Z"/></g></svg>
